assets/images/logo.svg

<svg width="45" height="45" viewBox="0 0 45 45" fill="none" xmlns="http://www.w3.org/2000/svg">
<path d="M38.1175 37.7087C46.905 28.9225 46.1137 13.885 36.35 4.12124L4.53 35.9412C14.2937 45.7062 29.3312 46.495 38.1175 37.7087" fill="#8B5E3C"/>
<path d="M36.35 4.12124C41.2313 9.00249 38.0662 20.0837 29.28 28.8712C20.4912 37.6575 9.41125 40.8225 4.53 35.9412C-0.35125 31.0612 2.81375 19.98 11.6012 11.1925C20.3887 2.405 31.47 -0.758756 36.35 4.12124Z" fill="#603913"/>
<path d="M5.51125 30.2712C5.225 30.5587 4.81125 30.6912 4.4025 30.6162C3.91875 30.5275 3.5325 30.1637 3.415 29.685C3.33 29.3487 1.44625 21.3475 7.18125 15.6125C8.58125 14.2125 10.66 10.895 11.2512 9.9325C11.7512 9.41375 12.1687 9.595 13.1237 8.63875C13.5612 8.20125 14.88 5.82875 18.6725 9.425C19.11 9.84 19.16 10.5225 18.8175 11.0187L5.6575 30.0962C5.6125 30.16 5.56375 30.2187 5.51125 30.2712" fill="#F5F8FA"/>
<path d="M13.0725 7.75999C15.3638 5.96374 19.0438 7.36624 19.9475 8.25499C20.8013 9.10749 20.5313 10.735 19.8463 11.7275L6.685 30.8062C6.59875 30.9325 6.50125 31.0487 6.395 31.1537C5.82125 31.7287 4.99375 31.995 4.17625 31.845C3.2075 31.6687 2.435 30.94 2.2 29.9837C2.11 29.6175 0.0700006 20.955 6.29625 14.7275C7.41125 13.6125 8.72 12.5562 9.9325 11.0875C10.3438 10.5575 11.415 9.28624 12.5263 8.17624L13.0725 7.75999ZM14.66 9.45249C13.7763 10.3362 12.8388 11.2237 12.8388 11.2237C12.8388 11.2237 9.83375 14.7275 8.06375 16.495C2.7625 21.7987 4.62625 29.3862 4.62625 29.3862L19.1925 9.79124C19.1925 9.79124 15.7025 8.48874 14.66 9.45249" fill="#603913"/>
<path d="M34.5825 5.88875C38.4875 9.79375 35.3225 19.2912 27.5113 27.1012C19.7013 34.9112 10.2038 38.0775 6.29875 34.1725C2.39375 30.2675 5.55875 20.77 13.3688 12.96C21.18 5.14875 30.6775 1.98375 34.5825 5.88875Z" fill="#F5F8FA"/>
<path d="M31.985 8.59624C34.8825 11.4937 32.0887 18.9887 25.7425 25.335C19.395 31.6825 11.9025 34.475 9.00375 31.5775C6.10625 28.6787 8.9 21.185 15.2462 14.8387C21.5925 8.49249 29.0875 5.69749 31.985 8.59624" fill="#99AAB5"/>
<path d="M19.7512 12.4237L18.2812 12.005C17.5787 11.615 16.5875 11.5875 15.9112 12.2125L14.3962 13.8037C13.68 14.6662 11.9987 16.4762 10.6537 17.8212C5.895 22.58 7.755 28.7237 7.83625 28.9837C7.9075 29.2112 8.1025 29.3775 8.33875 29.4137C8.5375 29.4437 8.73625 29.3775 8.875 29.2375C8.90125 29.2125 8.925 29.1837 8.94625 29.1525L19.9425 13.3162C20.0412 13.1737 20.0775 12.9975 20.0412 12.8287C20.005 12.6587 19.9 12.5137 19.7512 12.4237" fill="#99AAB5"/>
<path d="M15.3 32.57C15.3 32.57 19.3112 29.9637 20.0137 27.8562C20.8 25.5 25.8412 25.0412 26.6262 22.6837C27.41 20.3275 28.7212 16.7275 29.4425 15.2862C30.1625 13.845 31.015 15.285 31.8 12.9287C32.585 10.57 34.155 8.99875 34.155 8.99875C34.155 8.99875 34.155 20 31.8 22.3562C29.4425 24.7137 20.0137 34.1425 19.2275 33.355C18.4425 32.57 15.3 32.57 15.3 32.57" fill="#F5F8FA"/>
<path d="M16.4525 34.6625C16.4525 34.6625 21.115 31.4912 21.8475 29.295C22.6663 26.84 28.46 26.0212 29.2788 23.5662C30.0975 21.1112 31.2725 16.7087 31.67 16.2012C32.815 14.7275 33.305 16.2 34.125 13.7475C34.9425 11.2887 36.5788 9.65375 36.5788 9.65375C36.5788 9.65375 36.5788 21.1112 34.125 23.5662C31.67 26.0225 21.8488 35.8425 21.03 35.0237C20.21 34.2062 16.4525 34.6625 16.4525 34.6625" fill="#603913"/>
<path d="M17.7887 36.825C17.7887 36.825 22.3012 33.8937 23.0912 31.5225C23.975 28.8712 31.0475 27.1025 31.9312 24.45C32.815 21.7987 32.815 18.2637 33.6987 17.38C34.5825 16.495 35.4662 17.38 36.35 14.7275C37.2337 12.0762 39.0012 10.3087 39.0012 10.3087C39.0012 10.3087 39.0012 22.6825 36.35 25.335C33.6987 27.9862 23.0925 38.5925 22.2087 37.7087C21.3237 36.825 17.7887 36.825 17.7887 36.825" fill="#8B5E3C"/>
<path d="M28.995 40.0787C28.9075 40.1675 28.7862 40.2262 28.6462 40.2437C23.935 40.7762 20.03 38.8225 19.865 38.7387C19.5287 38.5675 19.365 38.1687 19.5025 37.8462C19.6375 37.5225 20.0237 37.4 20.3625 37.5737C20.3987 37.5925 23.7912 39.8775 28.0887 39.39C28.445 39.35 29.1212 39.3712 29.1987 39.735C29.245 39.9537 29.1337 39.9412 28.995 40.0787V40.0787ZM41.9412 28.605C41.7975 28.7475 41.8075 28.87 41.5787 28.8112C41.2187 28.72 41.2062 28.1662 41.26 27.8137C41.875 23.825 40.81 19.6837 38.9587 14.8737C38.8237 14.5237 38.9925 14.155 39.3262 14.0587C39.665 13.96 40.05 14.1637 40.1837 14.515C42.1275 19.5562 42.755 24.0587 42.1037 28.28C42.0837 28.4112 42.025 28.5212 41.9412 28.605V28.605ZM31.4862 41.065C31.3725 40.7087 30.4412 40.99 30.095 41.0662C21.4262 42.9737 15.52 39.335 15.455 39.305C15.115 39.135 14.7312 39.2625 14.5987 39.5837C14.4662 39.9062 14.6312 40.3062 14.9687 40.4737C15.25 40.615 20.9787 43.6612 30.125 41.6487C30.2387 41.6225 31.0262 41.485 31.1025 41.4087C31.255 41.2562 31.5637 41.305 31.4862 41.065" fill="#A97C50"/>
</svg>

<svg width="45" height="45" viewBox="0 0 45 45" fill="none" xmlns="http://www.w3.org/2000/svg"><path d="M38.117 37.709c8.788-8.787 7.997-23.824-1.767-33.588L4.53 35.941c9.764 9.765 24.801 10.554 33.587 1.768" fill="#8B5E3C"/><path d="M36.35 4.121c4.881 4.881 1.716 15.963-7.07 24.75-8.789 8.787-19.869 11.951-24.75 7.07-4.881-4.88-1.716-15.961 7.071-24.748C20.39 2.405 31.47-.76 36.35 4.12Z" fill="#603913"/><path d="M5.511 30.271a1.248 1.248 0 0 1-2.096-.586c-.085-.336-1.969-8.337 3.766-14.072 1.4-1.4 3.479-4.718 4.07-5.68.5-.52.918-.338 1.873-1.294.437-.438 1.756-2.81 5.548.786.438.415.488 1.098.145 1.594L5.657 30.096a1.336 1.336 0 0 1-.146.175" fill="#F5F8FA"/><path d="M13.072 7.76c2.292-1.796 5.972-.394 6.876.495.853.852.583 2.48-.102 3.472L6.685 30.807a2.498 2.498 0 0 1-4.485-.823c-.09-.367-2.13-9.029 4.096-15.257 1.115-1.114 2.424-2.17 3.636-3.64a35.96 35.96 0 0 1 2.594-2.91l.546-.417Zm1.588 1.692a106.84 106.84 0 0 1-1.821 1.772s-3.005 3.503-4.775 5.271c-5.301 5.304-3.438 12.891-3.438 12.891L19.192 9.791s-3.49-1.302-4.532-.339" fill="#603913"/><path d="M34.583 5.889c3.904 3.905.74 13.402-7.072 21.212-7.81 7.81-17.307 10.977-21.212 7.072-3.905-3.906-.74-13.403 7.07-21.213C21.18 5.149 30.677 1.984 34.583 5.889Z" fill="#F5F8FA"/><path d="M31.985 8.596c2.898 2.898.104 10.393-6.242 16.739-6.348 6.348-13.84 9.14-16.74 6.242C6.107 28.68 8.9 21.186 15.247 14.84c6.347-6.347 13.841-9.142 16.739-6.243" fill="#99AAB5"/><path d="m19.751 12.424-1.47-.419c-.702-.39-1.694-.418-2.37.207l-1.515 1.592c-.716.862-2.397 2.672-3.742 4.017-4.759 4.759-2.899 10.903-2.818 11.163a.625.625 0 0 0 1.11.168l10.996-15.836a.625.625 0 0 0-.19-.892" fill="#99AAB5"/><path d="M15.3 32.57s4.011-2.606 4.714-4.714c.786-2.356 5.827-2.815 6.612-5.172.784-2.357 2.095-5.957 2.816-7.398.72-1.441 1.573-.001 2.358-2.357.785-2.359 2.355-3.93 2.355-3.93s0 11.001-2.355 13.357c-2.358 2.358-11.786 11.786-12.573 10.999-.785-.785-3.927-.785-3.927-.785" fill="#F5F8FA"/><path d="M16.453 34.663s4.662-3.172 5.395-5.368c.818-2.455 6.612-3.274 7.43-5.729.82-2.455 1.995-6.857 2.392-7.365 1.145-1.474 1.635-.001 2.455-2.454.818-2.458 2.454-4.093 2.454-4.093s0 11.457-2.454 13.912C31.67 26.023 21.849 35.843 21.03 35.024c-.82-.818-4.578-.361-4.578-.361" fill="#603913"/><path d="M17.789 36.825s4.512-2.931 5.302-5.303c.884-2.65 7.956-4.42 8.84-7.072.884-2.651.884-6.186 1.768-7.07.884-.885 1.767 0 2.651-2.652.884-2.652 2.651-4.42 2.651-4.42s0 12.375-2.651 15.027c-2.651 2.651-13.258 13.258-14.141 12.374-.885-.884-4.42-.884-4.42-.884" fill="#8B5E3C"/><path d="M28.995 40.079a.587.587 0 0 1-.349.165c-4.711.532-8.616-1.422-8.781-1.505-.336-.171-.5-.57-.362-.893.134-.323.52-.446.86-.272.036.019 3.428 2.303 7.726 1.816.356-.04 1.032-.019 1.11.345.046.219-.065.206-.204.344Zm12.946-11.474c-.144.142-.134.265-.362.206-.36-.091-.373-.645-.319-.997.615-3.989-.45-8.13-2.301-12.94-.135-.35.033-.719.367-.815.339-.099.724.105.858.456 1.944 5.041 2.571 9.544 1.92 13.765a.577.577 0 0 1-.163.325Zm-10.455 12.46c-.114-.356-1.045-.075-1.391.001-8.669 1.908-14.575-1.731-14.64-1.761-.34-.17-.724-.042-.856.279-.133.322.032.722.37.89.281.141 6.01 3.187 15.156 1.175.114-.026.901-.164.977-.24.153-.153.462-.104.384-.344" fill="#A97C50"/></svg>
